abel/img/leafs.svg

<svg width="83" height="176" viewBox="0 0 83 176" fill="none" xmlns="http://www.w3.org/2000/svg">
<g filter="url(#filter0_d)">
<path d="M36.7823 28.4881C37.4125 29.8446 42.9547 31.6148 48.7552 30.0459C54.7132 28.4355 60.5443 21.9393 60.5443 21.9393C60.5443 21.9393 52.2342 19.2655 46.2762 20.8759C45.5673 21.0685 44.8911 21.3048 44.2435 21.5695C44.5542 20.9306 44.8386 20.2611 45.0793 19.5543C47.0682 13.7101 44.9327 5.24683 44.9327 5.24683C44.9327 5.24683 38.0776 10.6491 36.0865 16.4911C34.1961 22.0509 35.4979 27.5669 36.7823 28.4881Z" fill="white"/>
<path d="M65.5161 12.1239C71.1153 8.54871 75.0078 9.06395e-05 75.0078 9.06395e-05C75.0078 9.06395e-05 65.6146 -0.0677368 60.0154 3.5075C54.4163 7.08274 51.8059 13.0035 52.6265 14.2879C53.447 15.5723 59.917 15.697 65.5161 12.1239Z" fill="white"/>
<path d="M21.4399 50.5829C22.3786 51.9526 28.7654 52.8759 34.8284 50.1015C41.0556 47.2505 46.2499 39.076 46.2499 39.076C46.2499 39.076 36.6686 37.6669 30.4392 40.5179C29.6975 40.8571 29.0017 41.2422 28.3409 41.6491C28.5641 40.8921 28.7523 40.1066 28.8879 39.2905C29.9973 32.5316 26.1157 23.6592 26.1157 23.6592C26.1157 23.6592 19.5976 30.8228 18.4882 37.5816C17.4314 44.0078 19.8645 49.8083 21.4399 50.5829Z" fill="white"/>
<path d="M12.6197 77.5109C14.136 78.7866 21.7766 77.8085 27.8615 72.6798C34.1106 67.411 37.4736 56.3527 37.4736 56.3527C37.4736 56.3527 26.0039 57.7946 19.7549 63.0634C19.0132 63.687 18.3349 64.3478 17.7069 65.0239C17.7222 64.0874 17.685 63.1247 17.5778 62.1466C16.696 54.0203 9.39459 45.0581 9.39459 45.0581C9.39459 45.0581 4.18927 55.379 5.07323 63.5054C5.91125 71.2335 10.5608 77.1259 12.6197 77.5109Z" fill="white"/>
<path d="M14.2588 103.529C14.4995 103.419 14.7293 103.157 14.9371 102.794C17.5956 102.463 23.2407 99.225 26.7743 93.523C30.9688 86.7554 30.5465 75.6293 30.5465 75.6293C30.5465 75.6293 20.1731 80.5633 15.9786 87.3309C15.4075 88.252 14.9306 89.1885 14.5192 90.1228C14.2654 89.4314 13.9853 88.74 13.6484 88.0507C10.1694 80.9353 0.349528 75.0845 0.349528 75.0845C0.349528 75.0845 -1.21273 86.1187 2.26843 93.2364C5.74739 100.352 12.5609 104.301 14.2588 103.529Z" fill="white"/>
<path d="M24.8197 129.118C24.9969 128.936 25.1107 128.617 25.1697 128.21C27.4344 127.017 31.3619 122.129 32.539 115.657C33.9372 107.975 29.6836 97.7854 29.6836 97.7854C29.6836 97.7854 22.1131 105.824 20.7171 113.506C20.5267 114.552 20.4239 115.581 20.3823 116.585C19.9141 116.029 19.4218 115.48 18.8813 114.953C13.2866 109.504 2.45801 107.345 2.45801 107.345C2.45801 107.345 4.90422 118.112 10.4968 123.56C16.0916 129.006 23.5681 130.402 24.8197 129.118Z" fill="white"/>
<path d="M39.6242 147.996C41.4184 146.638 43.9281 142.025 43.5955 136.647C43.2016 130.284 37.1495 123 37.1495 123C37.1495 123 32.0339 130.816 32.4278 137.179C32.4825 138.056 32.6225 138.898 32.8063 139.715C32.2527 139.354 31.6948 138.995 31.0799 138.673C24.8375 135.409 14.5669 135.746 14.5669 135.746C14.5669 135.746 19.1071 143.83 25.3495 147.095C31.5919 150.359 38.6615 150.051 39.517 148.795C39.6395 148.618 39.6592 148.333 39.6242 147.996Z" fill="white"/>
<path d="M60.319 162.717C60.3519 162.534 60.2775 162.286 60.144 162.015C61.0345 160.37 61.4152 155.788 59.4548 151.355C57.1355 146.112 50.3482 141.675 50.3482 141.675C50.3482 141.675 49.066 149.681 51.3875 154.924C51.707 155.648 52.0789 156.317 52.475 156.952C51.952 156.803 51.4247 156.656 50.8689 156.558C45.2238 155.556 37.7539 158.711 37.7539 158.711C37.7539 158.711 43.6813 164.242 49.3264 165.244C54.9715 166.247 60.0893 164.013 60.319 162.717Z" fill="white"/>
<path d="M80.1008 167.725C80.4771 166.023 79.5363 161.842 76.4118 158.42C72.714 154.372 65.0012 152.232 65.0012 152.232C65.0012 152.232 66.0624 159.7 69.7602 163.75C70.27 164.308 70.8148 164.807 71.3705 165.266C70.8323 165.273 70.2897 165.284 69.7317 165.345C64.08 165.957 57.8813 170.758 57.8813 170.758C57.8813 170.758 65.0909 174.103 70.7404 173.489C76.3921 172.876 80.6193 169.52 80.4684 168.305C80.4465 168.13 80.3043 167.931 80.1008 167.725Z" fill="white"/>
</g>
<defs>
<filter id="filter0_d" x="0" y="0" width="82.4722" height="175.564" filterUnits="userSpaceOnUse" color-interpolation-filters="sRGB">
<feFlood flood-opacity="0" result="BackgroundImageFix"/>
<feColorMatrix in="SourceAlpha" type="matrix" values="0 0 0 0 0 0 0 0 0 0 0 0 0 0 0 0 0 0 127 0" result="hardAlpha"/>
<feOffset dx="2" dy="2"/>
<feComposite in2="hardAlpha" operator="out"/>
<feColorMatrix type="matrix" values="0 0 0 0 0 0 0 0 0 0 0 0 0 0 0 0 0 0 1 0"/>
<feBlend mode="normal" in2="BackgroundImageFix" result="effect1_dropShadow"/>
<feBlend mode="normal" in="SourceGraphic" in2="effect1_dropShadow" result="shape"/>
</filter>
</defs>
</svg>

<svg width="83" height="176" fill="none" xmlns="http://www.w3.org/2000/svg"><g filter="url(#filter0_d)" fill="#fff"><path d="M36.782 28.488c.63 1.357 6.173 3.127 11.973 1.558 5.958-1.61 11.79-8.107 11.79-8.107s-8.31-2.674-14.269-1.063a17.48 17.48 0 0 0-2.033.694c.311-.64.596-1.309.836-2.016 1.99-5.844-.146-14.307-.146-14.307s-6.855 5.402-8.846 11.244c-1.89 5.56-.59 11.076.695 11.997z"/><path d="M65.516 12.124C71.116 8.549 75.008 0 75.008 0s-9.393-.068-14.993 3.507c-5.599 3.576-8.21 9.497-7.389 10.78.821 1.285 7.291 1.41 12.89-2.163zM21.44 50.583c.939 1.37 7.325 2.293 13.388-.481C41.056 47.25 46.25 39.076 46.25 39.076s-9.581-1.41-15.81 1.442c-.742.34-1.438.724-2.1 1.131.224-.757.412-1.542.548-2.358 1.11-6.76-2.772-15.632-2.772-15.632s-6.518 7.164-7.628 13.923c-1.057 6.426 1.377 12.226 2.952 13z"/><path d="M12.62 77.51c1.516 1.277 9.157.298 15.242-4.83 6.249-5.269 9.612-16.327 9.612-16.327s-11.47 1.442-17.72 6.71a23.007 23.007 0 0 0-2.047 1.96c.015-.936-.022-1.898-.13-2.876-.881-8.127-8.182-17.089-8.182-17.089S4.189 55.38 5.073 63.505c.838 7.729 5.488 13.62 7.547 14.006z"/><path d="M14.259 103.529c.24-.11.47-.372.678-.735 2.659-.331 8.304-3.569 11.837-9.271 4.195-6.768 3.773-17.894 3.773-17.894s-10.374 4.934-14.568 11.702a22.43 22.43 0 0 0-1.46 2.792 21.762 21.762 0 0 0-.87-2.072c-3.48-7.116-13.3-12.966-13.3-12.966s-1.562 11.034 1.92 18.151c3.478 7.116 10.292 11.065 11.99 10.293z"/><path d="M24.82 129.118c.177-.182.29-.501.35-.908 2.264-1.193 6.192-6.081 7.369-12.553 1.398-7.682-2.855-17.872-2.855-17.872s-7.57 8.039-8.967 15.721a22.322 22.322 0 0 0-.335 3.079 22.508 22.508 0 0 0-1.5-1.632c-5.595-5.449-16.424-7.608-16.424-7.608s2.446 10.767 8.039 16.215c5.595 5.446 13.071 6.842 14.323 5.558zM39.624 147.996c1.794-1.358 4.304-5.971 3.971-11.349C43.203 130.284 37.15 123 37.15 123s-5.116 7.816-4.722 14.179c.055.877.195 1.719.378 2.536a20.84 20.84 0 0 0-1.726-1.042c-6.242-3.264-16.513-2.927-16.513-2.927s4.54 8.084 10.782 11.349c6.243 3.264 13.312 2.956 14.168 1.7.122-.177.142-.462.107-.799zM60.319 162.717c.033-.183-.041-.431-.175-.702.89-1.645 1.271-6.227-.69-10.66-2.319-5.243-9.106-9.68-9.106-9.68s-1.282 8.006 1.04 13.249c.319.724.69 1.393 1.087 2.028a15.906 15.906 0 0 0-1.606-.394c-5.645-1.002-13.115 2.153-13.115 2.153s5.927 5.531 11.572 6.533c5.645 1.003 10.763-1.231 10.993-2.527zM80.1 167.725c.377-1.702-.564-5.883-3.688-9.305-3.698-4.048-11.41-6.188-11.41-6.188s1.06 7.468 4.758 11.518c.51.558 1.055 1.057 1.61 1.516-.538.007-1.08.018-1.638.079-5.652.612-11.85 5.413-11.85 5.413s7.209 3.345 12.858 2.731c5.652-.613 9.88-3.969 9.728-5.184-.022-.175-.164-.374-.367-.58z"/></g><defs><filter id="filter0_d" x="0" y="0" width="82.472" height="175.564" filterUnits="userSpaceOnUse" color-interpolation-filters="sRGB"><feFlood flood-opacity="0" result="BackgroundImageFix"/><feColorMatrix in="SourceAlpha" values="0 0 0 0 0 0 0 0 0 0 0 0 0 0 0 0 0 0 127 0" result="hardAlpha"/><feOffset dx="2" dy="2"/><feComposite in2="hardAlpha" operator="out"/><feColorMatrix values="0 0 0 0 0 0 0 0 0 0 0 0 0 0 0 0 0 0 1 0"/><feBlend in2="BackgroundImageFix" result="effect1_dropShadow"/><feBlend in="SourceGraphic" in2="effect1_dropShadow" result="shape"/></filter></defs></svg>
